~samples = Dictionary.new;
~samples.putPairs([
	"cp", Buffer.read(s,"./samples/cp.wav" ),
 	"drum", Buffer.read(s,"./samples/drum.wav" ),
 	"hardkick", Buffer.read(s,"./samples/hardkick.wav" ),
 	"piano", Buffer.read(s,"./samples/piano.wav" ),
 	"popkick", Buffer.read(s,"./samples/popkick.wav" ),
 	"sn", Buffer.read(s,"./samples/sn.wav" ),
 	"trumpet", Buffer.read(s,"./samples/trumpet.wav" ),
 ]);